X: 1
T: Loozin' Air
M: 4/4
L: 1/8
R: reel
K: Amaj
A3 B c2 Bc | e2 ce afec | A3 B cABA | EFAE FAEF |
A3 B c2 Bc | e2 ce afec | A3 B cA ~A2 |1 GABG A2 E2 :|2 GABG A4 ||
|: a3 f d=gbg | f2 fe d3 B | AdfA dfAd | =gAdg Ad a2 |
a2 af d=gbg | f2 fe d3 B | =G2 (3Bcd =gfed | cBA=G F2 D2 :|
